X:1
T:James Byrne's
R:slip jig
M:9/8
L:1/8
K:D
A|:dfa afd dcd|Bcd efd cBA|dfa afd dcd|1 Bcd edc d2A:|2 Bcd edc d3|]
|:ecA ABA ecA|d2e ~f2f agf|ecA ABA ecA|1 d2e fdc def:|2 d2e fdc d2A|]